public/images/icons/espace-formation/icn_journey_01.svg

<svg height="50" viewBox="0 0 50 50" width="50" xmlns="http://www.w3.org/2000/svg"><g fill="none" fill-rule="evenodd"><path d="m47.1428571 50h-44.28571424c-1.57785715 0-2.85714286-1.2792857-2.85714286-2.8571429v-44.28571424c0-1.57785715 1.27928571-2.85714286 2.85714286-2.85714286h44.28571424c1.5778572 0 2.8571429 1.27928571 2.8571429 2.85714286v44.28571424c0 1.5778572-1.2792857 2.8571429-2.8571429 2.8571429" fill="#fff1f1"/><path d="m25 25v-13.3333333c-7.3636036 0-13.3333333 5.9697297-13.3333333 13.3333333s5.9697297 13.3333333 13.3333333 13.3333333 13.3333333-5.9697297 13.3333333-13.3333333c0-2.5816216-.7459459-4.9830631-2.0158558-7.0248649z" stroke="#ff7272" stroke-linejoin="round" stroke-width="2"/></g></svg>

<svg viewBox="0 0 50 50"><g fill="none" fill-rule="evenodd"><path fill="#fff1f1" d="M47.143 50H2.857A2.857 2.857 0 010 47.143V2.857A2.857 2.857 0 012.857 0h44.286A2.857 2.857 0 0150 2.857v44.286A2.857 2.857 0 0147.143 50"/><path stroke="#ff7272" stroke-linejoin="round" stroke-width="2" d="M25 25V11.667c-7.364 0-13.333 5.97-13.333 13.333S17.637 38.333 25 38.333 38.333 32.363 38.333 25c0-2.582-.746-4.983-2.016-7.025z"/></g></svg>
